X:2500
L:1/8
M:4/4
K:C
[M:4/4][K:A] accdae ue a ca ge e g c[Q:1/8=180] .e2 df eABd | efeB d2 BA | Beed ef=ge | 
 Bded cABd :| eA A2 BABd | cA A2 B=GBd | cA A2 EA A2 |1 cAed cABd :|2 cAed cAce || a2 c'a a2 c'a | 
 a2 c'a e3 f | =g2 bg agbg | =g2 bg dgbg | a2 c'a abc'b | abc'a e2 ef | =gfgb agef | 
 =gfge d=GBd"_DC" |][K:G]"^version in G" d2 ce dGAc | dedA c2 AG | Addc de=fd | Acdc BGAc :| 
 dG G2 AGAc | BG G2 A=FAc | BG G2 DG G2 |1 BGdc BGAc :|2 BGdc BGBd || g2 bg g2 bg | g2 bg d3 e | 
 =f2 af gfaf | =f2 af cfaf | g2 bg gaba | gabg d2 de | =fefa gfde | =fefd c=FAc"_DC" |]

